icon/lg/convox.svg

<?xml version="1.0" encoding="UTF-8"?>
<svg viewBox="0 0 512 99" version="1.1" xmlns="http://www.w3.org/2000/svg" preserveAspectRatio="xMidYMid" height="1em" width="1em">
  <g>
    <path d="M163.014542,78.72768 C156.965547,78.72768 151.483164,77.4357333 146.56768,74.85184 C141.825138,72.3262578 137.844053,68.5789867 135.036018,63.9982933 C132.263822,59.3373867 130.878862,54.0856889 130.881132,48.2432 C130.883413,42.4004267 132.268373,37.1774578 135.036018,32.5740089 C137.810773,27.9627662 141.800107,24.2033209 146.56768,21.7068373 C151.483164,19.0700942 156.990862,17.7505564 163.090489,17.7482524 C168.233244,17.7482524 172.868551,18.6466987 176.996978,20.4435342 C181.070507,22.1569991 184.677547,24.8153884 187.52,28.1989404 L178.701084,36.2848711 C174.687289,31.6791467 169.713209,29.3762844 163.778844,29.3762844 C160.343324,29.3168356 156.952462,30.15936 153.944462,31.8202311 C151.102293,33.3485511 148.750222,35.6491378 147.159609,38.4568889 C145.599147,41.4779733 144.784782,44.8290133 144.784782,48.2292622 C144.784782,51.6297956 145.599147,54.9808356 147.159609,58.00192 C148.759893,60.8284444 151.107129,63.16032 153.944462,64.7418311 C156.826738,66.3113956 160.104676,67.0964622 163.778844,67.0964622 C169.713209,67.0964622 174.687289,64.7660089 178.701084,60.1051022 L187.52,68.1910044 C184.70144,71.6199822 181.0944,74.3150933 177.007502,76.0462222 C172.826169,77.8339556 168.161849,78.72768 163.014542,78.72768 Z M223.212942,78.72768 C217.051307,78.72768 211.483022,77.4070044 206.507804,74.7656533 C201.727147,72.2557156 197.713351,68.5010489 194.89024,63.8984533 C192.122596,59.2375467 190.737636,54.0145778 190.735354,48.2292622 C190.733084,42.4439467 192.118044,37.2497067 194.89024,32.6462578 C197.694578,28.006656 201.711218,24.2197049 206.507804,21.6929564 C211.480747,19.0562133 217.049031,17.7366756 223.212942,17.7343657 C229.376853,17.732096 234.914418,19.0516053 239.825351,21.6929564 C244.6208,24.2199324 248.636302,28.0068836 251.439502,32.6462578 C254.266596,37.2519822 255.680284,42.4462222 255.680284,48.2292622 C255.680284,54.0123022 254.266596,59.2352711 251.439502,63.8984533 C248.617813,68.5007644 244.604871,72.2554311 239.825351,74.7656533 C234.912142,77.4070044 229.374578,78.72768 223.212942,78.72768 Z M223.212942,67.0995911 C226.528142,67.1473778 229.799253,66.3350044 232.706844,64.7418311 C235.494684,63.1523556 237.7856,60.8187733 239.322738,58.00192 C240.936391,54.9973333 241.781191,51.6397511 241.781191,48.2292622 C241.781191,44.8187733 240.936391,41.4611911 239.322738,38.4566044 C237.797831,35.6525511 235.50208,33.3437156 232.706844,31.80288 C229.798684,30.1997511 226.532124,29.3589333 223.211236,29.3589333 C219.890631,29.3589333 216.624071,30.1997511 213.715911,31.80288 C210.908729,33.3559467 208.589084,35.6599467 207.017244,38.4566044 C205.456782,41.4779733 204.642418,44.8287289 204.642418,48.2292622 C204.642418,51.6297956 205.456782,54.9805511 207.017244,58.00192 C208.602169,60.8108089 210.916409,63.1395556 213.715911,64.7418311 C216.360469,66.1891362 219.305221,66.991152 222.309961,67.0882542 L223.212942,67.0995911 Z M319.357156,18.7465387 L319.357156,77.7156267 L308.081778,77.7156267 L278.478222,41.9163022 L278.478222,77.7156267 L264.922453,77.7156267 L264.922453,18.7465387 L276.282027,18.7465387 L305.789156,54.54592 L305.789156,18.7465387 L319.357156,18.7465387 Z M420.9152,17.7343657 C427.079111,17.732096 432.620089,19.0516053 437.535289,21.6929564 C442.331022,24.2199324 446.344533,28.0068836 449.149156,32.6462578 C451.976533,37.2519822 453.390222,42.4462222 453.390222,48.2292622 C453.390222,54.0123022 451.976533,59.2352711 449.149156,63.8984533 C446.327467,68.5007644 442.313956,72.2554311 437.535289,74.7656533 C432.617244,77.4070044 427.076267,78.72768 420.9152,78.72768 C414.754133,78.72768 409.184711,77.4070044 404.209778,74.7656533 C399.428267,72.2557156 395.414756,68.5010489 392.593067,63.8984533 C389.825422,59.2375467 388.440178,54.0145778 388.440178,48.2292622 C388.440178,42.4439467 389.825422,37.2497067 392.593067,32.6462578 C395.397689,28.006656 399.414044,24.2197049 404.209778,21.6929564 C409.181867,19.0562133 414.751289,17.7366756 420.9152,17.7343657 Z M339.0208,18.7465387 L357.082732,60.8618324 L375.395556,18.7465387 L389.046044,18.7465387 L363.355022,77.7156267 L349.787022,77.7156267 L324.181333,18.7465387 L339.0208,18.7465387 Z M468.673422,18.7465387 L482.323911,37.8680889 L495.721244,18.7465387 L510.560711,18.7465387 L489.870222,47.2209067 L512,77.7156267 L496.150756,77.7156267 L481.814756,57.2447289 L467.740444,77.7156267 L451.970844,77.7156267 L473.929956,47.7269333 L453.071644,18.7465387 L468.673422,18.7465387 Z M420.9152,29.3589333 C417.592889,29.3589333 414.327467,30.1997511 411.4176,31.80288 C408.607289,33.3545244 406.283378,35.6585244 404.7104,38.4566044 C403.1488,41.4779733 402.335289,44.8287289 402.335289,48.2292622 C402.335289,51.6297956 403.1488,54.9805511 404.7104,58.00192 C406.294756,60.8108089 408.607289,63.1395556 411.409067,64.7418311 C414.0544,66.1906877 417.002984,66.9928445 420.011192,67.0886773 L420.9152,67.0995911 C424.231822,67.1468089 427.502933,66.33472 430.4128,64.7418311 C433.197511,63.1512178 435.487289,60.81792 437.026133,58.00192 C438.638933,54.9973333 439.483733,51.6397511 439.483733,48.2292622 C439.483733,44.8187733 438.638933,41.4611911 437.026133,38.4566044 C435.501511,35.6536889 433.206044,33.3448533 430.4128,31.80288 C427.502933,30.1997511 424.237511,29.3589333 420.9152,29.3589333 Z" fill="#313131"/>
    <path d="M0.932986311,60.3047822 L50.3293156,86.2799644 L100.114489,60.5112889 L100.114489,72.3319467 L50.2983111,98.1626311 L0.932986311,72.1703822 L0.932986311,60.3047822 Z M100.114489,39.0180978 L100.114489,50.8353422 L50.2983111,76.66944 L0.932986311,50.6769067 L0.932986311,39.2143644 L50.3259022,64.7901867 L100.114489,39.0180978 Z M50.2257778,0 L101.222684,28.5707378 L75.6295111,41.7991111 L50.2363022,55.1483733 L0,28.5431467 L50.2257778,0 Z M50.2601956,12.0581973 L21.8238578,28.2230044 L50.2499556,43.2725333 L70.8516978,32.4363378 L79.0718578,28.198912 L50.2601956,12.0581973 Z" fill="#4F8CE8"/>
  </g>
</svg>

<svg width="512" height="99" xmlns="http://www.w3.org/2000/svg" preserveAspectRatio="xMidYMid"><path d="M163.015 78.728c-6.05 0-11.532-1.292-16.447-3.876a30.147 30.147 0 0 1-11.532-10.854c-2.772-4.66-4.157-9.912-4.155-15.755.002-5.843 1.387-11.066 4.155-15.669a29.347 29.347 0 0 1 11.532-10.867c4.915-2.637 10.423-3.956 16.522-3.959 5.143 0 9.779.899 13.907 2.696a27.843 27.843 0 0 1 10.523 7.755l-8.819 8.086c-4.014-4.606-8.988-6.909-14.922-6.909a19.642 19.642 0 0 0-9.835 2.444 17.112 17.112 0 0 0-6.784 6.637 21.295 21.295 0 0 0 0 19.545 17.7 17.7 0 0 0 6.784 6.74c2.883 1.57 6.16 2.354 9.835 2.354 5.934 0 10.908-2.33 14.922-6.99l8.819 8.085a27.485 27.485 0 0 1-10.512 7.855c-4.182 1.788-8.846 2.682-13.993 2.682Zm60.198 0c-6.162 0-11.73-1.321-16.705-3.962a29.975 29.975 0 0 1-11.618-10.868c-2.767-4.66-4.152-9.883-4.155-15.669-.002-5.785 1.383-10.98 4.155-15.583a29.808 29.808 0 0 1 11.618-10.953c4.973-2.637 10.541-3.956 16.705-3.959 6.164-.002 11.701 1.318 16.612 3.959a29.802 29.802 0 0 1 11.615 10.953c2.827 4.606 4.24 9.8 4.24 15.583 0 5.783-1.413 11.006-4.24 15.67a29.968 29.968 0 0 1-11.615 10.867c-4.913 2.641-10.45 3.962-16.612 3.962Zm0-11.628a19.182 19.182 0 0 0 9.494-2.358 17.296 17.296 0 0 0 6.616-6.74 20.655 20.655 0 0 0 0-19.545 16.717 16.717 0 0 0-6.616-6.654 19.67 19.67 0 0 0-18.991 0 17.28 17.28 0 0 0-6.699 6.654 21.296 21.296 0 0 0 0 19.545 17.902 17.902 0 0 0 6.699 6.74 19.193 19.193 0 0 0 8.594 2.346l.903.012Zm96.144-48.353v58.969h-11.275l-29.604-35.8v35.8h-13.556v-58.97h11.36l29.507 35.8v-35.8h13.568Zm101.558-1.013c6.164-.002 11.705 1.318 16.62 3.959a29.809 29.809 0 0 1 11.614 10.953c2.828 4.606 4.241 9.8 4.241 15.583 0 5.783-1.413 11.006-4.24 15.67a29.973 29.973 0 0 1-11.615 10.867c-4.918 2.641-10.459 3.962-16.62 3.962-6.16 0-11.73-1.321-16.705-3.962a29.957 29.957 0 0 1-11.617-10.868c-2.768-4.66-4.153-9.883-4.153-15.669 0-5.785 1.385-10.98 4.153-15.583a29.813 29.813 0 0 1 11.617-10.953c4.972-2.637 10.541-3.956 16.705-3.959Zm-81.894 1.013 18.062 42.115 18.313-42.115h13.65l-25.691 58.969h-13.568l-25.606-58.97h14.84Zm129.652 0 13.65 19.121 13.398-19.121h14.84L489.87 47.22 512 77.716h-15.85l-14.335-20.471-14.075 20.47h-15.77l21.96-29.988-20.858-28.98h15.601Zm-47.758 10.612c-3.322 0-6.588.84-9.497 2.444a17.27 17.27 0 0 0-6.708 6.654 21.282 21.282 0 0 0 0 19.545 17.882 17.882 0 0 0 6.7 6.74 19.181 19.181 0 0 0 8.601 2.347l.904.01a19.207 19.207 0 0 0 9.498-2.357 17.335 17.335 0 0 0 6.613-6.74 20.664 20.664 0 0 0 0-19.545 16.736 16.736 0 0 0-6.613-6.654 19.678 19.678 0 0 0-9.498-2.444Z" fill="#313131"/><path d="M.933 60.305 50.329 86.28l49.785-25.769v11.82L50.298 98.164.933 72.17V60.305Zm99.181-21.287v11.817L50.298 76.67.933 50.677V39.214L50.326 64.79l49.788-25.772ZM50.226 0l50.997 28.57L75.63 41.8 50.236 55.147 0 28.543 50.226 0Zm.034 12.058L21.824 28.223l28.426 15.05 20.602-10.837 8.22-4.237-28.812-16.14Z" fill="#4F8CE8"/></svg>
